MoveL [[0.0,0.0,0.0], [0.000772984,-0.000000011,-0.999999701,-0.000000009], [-1,-1,0,0], [ 9E+09,9E+09,9E+09,9E+09,9E+09,9E+09]],speed, zone, tExtruder \WObj:=Platform;
MoveL [[144.06,213.47000000000003,4.0], [0.000772984,-0.000000011,-0.999999701,-0.000000009], [-1,-1,0,0], [ 9E+09,9E+09,9E+09,9E+09,9E+09,9E+09]],speed, zone, tExtruder \WObj:=Platform;
MoveC [[263.79043967437724,380.91965241172034,4.0], [0.000772984,-0.000000011,-0.999999701,-0.000000009], [-1,-1,0,0], [ 9E+09,9E+09,9E+09,9E+09,9E+09,9E+09]],[[129.03,225.31,4.0], [0.000772984,-0.000000011,-0.999999701,-0.000000009], [-1,-1,0,0], [ 9E+09,9E+09,9E+09,9E+09,9E+09,9E+09]],speed, zone, tExtruder \WObj:=Platform;
MoveC [[136.30384785968766,219.08385638474797,4.0], [0.000772984,-0.000000011,-0.999999701,-0.000000009], [-1,-1,0,0], [ 9E+09,9E+09,9E+09,9E+09,9E+09,9E+09]],[[144.06,213.47000000000003,4.0], [0.000772984,-0.000000011,-0.999999701,-0.000000009], [-1,-1,0,0], [ 9E+09,9E+09,9E+09,9E+09,9E+09,9E+09]],speed, zone, tExtruder \WObj:=Platform;
MoveL [[145.77,212.44,4.0], [0.000772984,-0.000000011,-0.999999701,-0.000000009], [-1,-1,0,0], [ 9E+09,9E+09,9E+09,9E+09,9E+09,9E+09]],speed, zone, tExtruder \WObj:=Platform;
MoveL [[145.45,218.54,4.0], [0.000772984,-0.000000011,-0.999999701,-0.000000009], [-1,-1,0,0], [ 9E+09,9E+09,9E+09,9E+09,9E+09,9E+09]],speed, zone, tExtruder \WObj:=Platform;
MoveC [[251.7127480080788,383.2996096611379,4.0], [0.000772984,-0.000000011,-0.999999701,-0.000000009], [-1,-1,0,0], [ 9E+09,9E+09,9E+09,9E+09,9E+09,9E+09]],[[150.9,215.15,4.0], [0.000772984,-0.000000011,-0.999999701,-0.000000009], [-1,-1,0,0], [ 9E+09,9E+09,9E+09,9E+09,9E+09,9E+09]],speed, zone, tExtruder \WObj:=Platform;
MoveL [[145.45,218.54,4.0], [0.000772984,-0.000000011,-0.999999701,-0.000000009], [-1,-1,0,0], [ 9E+09,9E+09,9E+09,9E+09,9E+09,9E+09]],speed, zone, tExtruder \WObj:=Platform;
MoveL [[143.82999999999998,219.71,4.0], [0.000772984,-0.000000011,-0.999999701,-0.000000009], [-1,-1,0,0], [ 9E+09,9E+09,9E+09,9E+09,9E+09,9E+09]],speed, zone, tExtruder \WObj:=Platform;
MoveL [[146.60999999999999,224.20000000000002,4.0], [0.000772984,-0.000000011,-0.999999701,-0.000000009], [-1,-1,0,0], [ 9E+09,9E+09,9E+09,9E+09,9E+09,9E+09]],speed, zone, tExtruder \WObj:=Platform;
MoveC [[155.8289600242512,221.70574742294122,4.0], [0.000772984,-0.000000011,-0.999999701,-0.000000009], [-1,-1,0,0], [ 9E+09,9E+09,9E+09,9E+09,9E+09,9E+09]],[[164.11,226.46999999999997,4.0], [0.000772984,-0.000000011,-0.999999701,-0.000000009], [-1,-1,0,0], [ 9E+09,9E+09,9E+09,9E+09,9E+09,9E+09]],speed, zone, tExtruder \WObj:=Platform;
MoveL [[167.12,230.54,4.0], [0.000772984,-0.000000011,-0.999999701,-0.000000009], [-1,-1,0,0], [ 9E+09,9E+09,9E+09,9E+09,9E+09,9E+09]],speed, zone, tExtruder \WObj:=Platform;
MoveC [[174.00617247488427,231.47462146144107,4.0], [0.000772984,-0.000000011,-0.999999701,-0.000000009], [-1,-1,0,0], [ 9E+09,9E+09,9E+09,9E+09,9E+09,9E+09]],[[178.57,226.23000000000002,4.0], [0.000772984,-0.000000011,-0.999999701,-0.000000009], [-1,-1,0,0], [ 9E+09,9E+09,9E+09,9E+09,9E+09,9E+09]],speed, zone, tExtruder \WObj:=Platform;
MoveL [[178.18,218.95,4.0], [0.000772984,-0.000000011,-0.999999701,-0.000000009], [-1,-1,0,0], [ 9E+09,9E+09,9E+09,9E+09,9E+09,9E+09]],speed, zone, tExtruder \WObj:=Platform;
MoveC [[189.96042685172404,207.87408610689326,4.0], [0.000772984,-0.000000011,-0.999999701,-0.000000009], [-1,-1,0,0], [ 9E+09,9E+09,9E+09,9E+09,9E+09,9E+09]],[[202.39000000000001,218.22,4.0], [0.000772984,-0.000000011,-0.999999701,-0.000000009], [-1,-1,0,0], [ 9E+09,9E+09,9E+09,9E+09,9E+09,9E+09]],speed, zone, tExtruder \WObj:=Platform;
MoveL [[203.17000000000002,223.21,4.0], [0.000772984,-0.000000011,-0.999999701,-0.000000009], [-1,-1,0,0], [ 9E+09,9E+09,9E+09,9E+09,9E+09,9E+09]],speed, zone, tExtruder \WObj:=Platform;
MoveC [[208.83983948798164,227.2266164246397,4.0], [0.000772984,-0.000000011,-0.999999701,-0.000000009], [-1,-1,0,0], [ 9E+09,9E+09,9E+09,9E+09,9E+09,9E+09]],[[215.31,224.71,4.0], [0.000772984,-0.000000011,-0.999999701,-0.000000009], [-1,-1,0,0], [ 9E+09,9E+09,9E+09,9E+09,9E+09,9E+09]],speed, zone, tExtruder \WObj:=Platform;
MoveL [[218.32999999999998,218.11,4.0], [0.000772984,-0.000000011,-0.999999701,-0.000000009], [-1,-1,0,0], [ 9E+09,9E+09,9E+09,9E+09,9E+09,9E+09]],speed, zone, tExtruder \WObj:=Platform;
MoveC [[233.94435926495606,213.74831961505083,4.0], [0.000772984,-0.000000011,-0.999999701,-0.000000009], [-1,-1,0,0], [ 9E+09,9E+09,9E+09,9E+09,9E+09,9E+09]],[[240.12,228.70999999999998,4.0], [0.000772984,-0.000000011,-0.999999701,-0.000000009], [-1,-1,0,0], [ 9E+09,9E+09,9E+09,9E+09,9E+09,9E+09]],speed, zone, tExtruder \WObj:=Platform;
MoveL [[238.51,233.46,4.0], [0.000772984,-0.000000011,-0.999999701,-0.000000009], [-1,-1,0,0], [ 9E+09,9E+09,9E+09,9E+09,9E+09,9E+09]],speed, zone, tExtruder \WObj:=Platform;
MoveC [[241.64235308778615,239.66194687387934,4.0], [0.000772984,-0.000000011,-0.999999701,-0.000000009], [-1,-1,0,0], [ 9E+09,9E+09,9E+09,9E+09,9E+09,9E+09]],[[248.55,240.44,4.0], [0.000772984,-0.000000011,-0.999999701,-0.000000009], [-1,-1,0,0], [ 9E+09,9E+09,9E+09,9E+09,9E+09,9E+09]],speed, zone, tExtruder \WObj:=Platform;
MoveL [[254.32,235.98,4.0], [0.000772984,-0.000000011,-0.999999701,-0.000000009], [-1,-1,0,0], [ 9E+09,9E+09,9E+09,9E+09,9E+09,9E+09]],speed, zone, tExtruder \WObj:=Platform;
MoveC [[270.1506891883746,239.3962744508952,4.0], [0.000772984,-0.000000011,-0.999999701,-0.000000009], [-1,-1,0,0], [ 9E+09,9E+09,9E+09,9E+09,9E+09,9E+09]],[[268.65999999999997,255.51,4.0], [0.000772984,-0.000000011,-0.999999701,-0.000000009], [-1,-1,0,0], [ 9E+09,9E+09,9E+09,9E+09,9E+09,9E+09]],speed, zone, tExtruder \WObj:=Platform;
MoveL [[265.02,258.96000000000004,4.0], [0.000772984,-0.000000011,-0.999999701,-0.000000009], [-1,-1,0,0], [ 9E+09,9E+09,9E+09,9E+09,9E+09,9E+09]],speed, zone, tExtruder \WObj:=Platform;
MoveC [[264.9184269043922,265.91208666451547,4.0], [0.000772984,-0.000000011,-0.999999701,-0.000000009], [-1,-1,0,0], [ 9E+09,9E+09,9E+09,9E+09,9E+09,9E+09]],[[270.67,269.81,4.0], [0.000772984,-0.000000011,-0.999999701,-0.000000009], [-1,-1,0,0], [ 9E+09,9E+09,9E+09,9E+09,9E+09,9E+09]],speed, zone, tExtruder \WObj:=Platform;
MoveL [[277.75,268.53999999999996,4.0], [0.000772984,-0.000000011,-0.999999701,-0.000000009], [-1,-1,0,0], [ 9E+09,9E+09,9E+09,9E+09,9E+09,9E+09]],speed, zone, tExtruder \WObj:=Platform;
MoveC [[290.25890301361994,278.8359626820599,4.0], [0.000772984,-0.000000011,-0.999999701,-0.000000009], [-1,-1,0,0], [ 9E+09,9E+09,9E+09,9E+09,9E+09,9E+09]],[[281.5,292.49,4.0], [0.000772984,-0.000000011,-0.999999701,-0.000000009], [-1,-1,0,0], [ 9E+09,9E+09,9E+09,9E+09,9E+09,9E+09]],speed, zone, tExtruder \WObj:=Platform;
MoveL [[276.65,293.86,4.0], [0.000772984,-0.000000011,-0.999999701,-0.000000009], [-1,-1,0,0], [ 9E+09,9E+09,9E+09,9E+09,9E+09,9E+09]],speed, zone, tExtruder \WObj:=Platform;
MoveC [[273.3213089196656,299.9717054040542,4.0], [0.000772984,-0.000000011,-0.999999701,-0.000000009], [-1,-1,0,0], [ 9E+09,9E+09,9E+09,9E+09,9E+09,9E+09]],[[276.62,306.1,4.0], [0.000772984,-0.000000011,-0.999999701,-0.000000009], [-1,-1,0,0], [ 9E+09,9E+09,9E+09,9E+09,9E+09,9E+09]],speed, zone, tExtruder \WObj:=Platform;
MoveL [[283.45,308.25,4.0], [0.000772984,-0.000000011,-0.999999701,-0.000000009], [-1,-1,0,0], [ 9E+09,9E+09,9E+09,9E+09,9E+09,9E+09]],speed, zone, tExtruder \WObj:=Platform;
MoveC [[289.7587652618632,323.194008871186,4.0], [0.000772984,-0.000000011,-0.999999701,-0.000000009], [-1,-1,0,0], [ 9E+09,9E+09,9E+09,9E+09,9E+09,9E+09]],[[275.65999999999997,331.21000000000004,4.0], [0.000772984,-0.000000011,-0.999999701,-0.000000009], [-1,-1,0,0], [ 9E+09,9E+09,9E+09,9E+09,9E+09,9E+09]],speed, zone, tExtruder \WObj:=Platform;
MoveL [[270.71000000000004,330.15999999999997,4.0], [0.000772984,-0.000000011,-0.999999701,-0.000000009], [-1,-1,0,0], [ 9E+09,9E+09,9E+09,9E+09,9E+09,9E+09]],speed, zone, tExtruder \WObj:=Platform;
MoveC [[264.93626120421055,334.0369464827854,4.0], [0.000772984,-0.000000011,-0.999999701,-0.000000009], [-1,-1,0,0], [ 9E+09,9E+09,9E+09,9E+09,9E+09,9E+09]],[[265.0,341.0,4.0], [0.000772984,-0.000000011,-0.999999701,-0.000000009], [-1,-1,0,0], [ 9E+09,9E+09,9E+09,9E+09,9E+09,9E+09]],speed, zone, tExtruder \WObj:=Platform;
MoveL [[270.06,346.08,4.0], [0.000772984,-0.000000011,-0.999999701,-0.000000009], [-1,-1,0,0], [ 9E+09,9E+09,9E+09,9E+09,9E+09,9E+09]],speed, zone, tExtruder \WObj:=Platform;
MoveC [[268.70070095172775,362.23173599931437,4.0], [0.000772984,-0.000000011,-0.999999701,-0.000000009], [-1,-1,0,0], [ 9E+09,9E+09,9E+09,9E+09,9E+09,9E+09]],[[252.5,362.8,4.0], [0.000772984,-0.000000011,-0.999999701,-0.000000009], [-1,-1,0,0], [ 9E+09,9E+09,9E+09,9E+09,9E+09,9E+09]],speed, zone, tExtruder \WObj:=Platform;
MoveL [[248.6,359.58,4.0], [0.000772984,-0.000000011,-0.999999701,-0.000000009], [-1,-1,0,0], [ 9E+09,9E+09,9E+09,9E+09,9E+09,9E+09]],speed, zone, tExtruder \WObj:=Platform;
MoveC [[241.68797394161498,360.31070811348235,4.0], [0.000772984,-0.000000011,-0.999999701,-0.000000009], [-1,-1,0,0], [ 9E+09,9E+09,9E+09,9E+09,9E+09,9E+09]],[[238.51,366.49,4.0], [0.000772984,-0.000000011,-0.999999701,-0.000000009], [-1,-1,0,0], [ 9E+09,9E+09,9E+09,9E+09,9E+09,9E+09]],speed, zone, tExtruder \WObj:=Platform;
MoveL [[240.64,373.44,4.0], [0.000772984,-0.000000011,-0.999999701,-0.000000009], [-1,-1,0,0], [ 9E+09,9E+09,9E+09,9E+09,9E+09,9E+09]],speed, zone, tExtruder \WObj:=Platform;
MoveC [[231.8605308504449,387.0417750718468,4.0], [0.000772984,-0.000000011,-0.999999701,-0.000000009], [-1,-1,0,0], [ 9E+09,9E+09,9E+09,9E+09,9E+09,9E+09]],[[217.31,379.97,4.0], [0.000772984,-0.000000011,-0.999999701,-0.000000009], [-1,-1,0,0], [ 9E+09,9E+09,9E+09,9E+09,9E+09,9E+09]],speed, zone, tExtruder \WObj:=Platform;
MoveL [[215.35,375.31999999999994,4.0], [0.000772984,-0.000000011,-0.999999701,-0.000000009], [-1,-1,0,0], [ 9E+09,9E+09,9E+09,9E+09,9E+09,9E+09]],speed, zone, tExtruder \WObj:=Platform;
MoveC [[208.89397105312025,372.76286064244636,4.0], [0.000772984,-0.000000011,-0.999999701,-0.000000009], [-1,-1,0,0], [ 9E+09,9E+09,9E+09,9E+09,9E+09,9E+09]],[[203.21,376.76,4.0], [0.000772984,-0.000000011,-0.999999701,-0.000000009], [-1,-1,0,0], [ 9E+09,9E+09,9E+09,9E+09,9E+09,9E+09]],speed, zone, tExtruder \WObj:=Platform;
MoveL [[201.88,383.83000000000004,4.0], [0.000772984,-0.000000011,-0.999999701,-0.000000009], [-1,-1,0,0], [ 9E+09,9E+09,9E+09,9E+09,9E+09,9E+09]],speed, zone, tExtruder \WObj:=Platform;
MoveC [[187.82492859797537,391.88405036491145,4.0], [0.000772984,-0.000000011,-0.999999701,-0.000000009], [-1,-1,0,0], [ 9E+09,9E+09,9E+09,9E+09,9E+09,9E+09]],[[178.16,378.82,4.0], [0.000772984,-0.000000011,-0.999999701,-0.000000009], [-1,-1,0,0], [ 9E+09,9E+09,9E+09,9E+09,9E+09,9E+09]],speed, zone, tExtruder \WObj:=Platform;
MoveL [[178.58,373.68,4.0], [0.000772984,-0.000000011,-0.999999701,-0.000000009], [-1,-1,0,0], [ 9E+09,9E+09,9E+09,9E+09,9E+09,9E+09]],speed, zone, tExtruder \WObj:=Platform;
MoveC [[174.0017604980082,368.5236769737886,4.0], [0.000772984,-0.000000011,-0.999999701,-0.000000009], [-1,-1,0,0], [ 9E+09,9E+09,9E+09,9E+09,9E+09,9E+09]],[[167.17,369.44000000000005,4.0], [0.000772984,-0.000000011,-0.999999701,-0.000000009], [-1,-1,0,0], [ 9E+09,9E+09,9E+09,9E+09,9E+09,9E+09]],speed, zone, tExtruder \WObj:=Platform;
MoveL [[162.65999999999997,375.12,4.0], [0.000772984,-0.000000011,-0.999999701,-0.000000009], [-1,-1,0,0], [ 9E+09,9E+09,9E+09,9E+09,9E+09,9E+09]],speed, zone, tExtruder \WObj:=Platform;
MoveC [[146.47953226658976,375.6520686681933,4.0], [0.000772984,-0.000000011,-0.999999701,-0.000000009], [-1,-1,0,0], [ 9E+09,9E+09,9E+09,9E+09,9E+09,9E+09]],[[144.01999999999998,359.66,4.0], [0.000772984,-0.000000011,-0.999999701,-0.000000009], [-1,-1,0,0], [ 9E+09,9E+09,9E+09,9E+09,9E+09,9E+09]],speed, zone, tExtruder \WObj:=Platform;
MoveL [[146.73,355.40999999999997,4.0], [0.000772984,-0.000000011,-0.999999701,-0.000000009], [-1,-1,0,0], [ 9E+09,9E+09,9E+09,9E+09,9E+09,9E+09]],speed, zone, tExtruder \WObj:=Platform;
MoveC [[145.17865502582933,348.6317210325188,4.0], [0.000772984,-0.000000011,-0.999999701,-0.000000009], [-1,-1,0,0], [ 9E+09,9E+09,9E+09,9E+09,9E+09,9E+09]],[[138.66,346.22999999999996,4.0], [0.000772984,-0.000000011,-0.999999701,-0.000000009], [-1,-1,0,0], [ 9E+09,9E+09,9E+09,9E+09,9E+09,9E+09]],speed, zone, tExtruder \WObj:=Platform;
MoveC [[131.73862401185386,349.01610740183423,4.0], [0.000772984,-0.000000011,-0.999999701,-0.000000009], [-1,-1,0,0], [ 9E+09,9E+09,9E+09,9E+09,9E+09,9E+09]],[[124.28,348.8,4.0], [0.000772984,-0.000000011,-0.999999701,-0.000000009], [-1,-1,0,0], [ 9E+09,9E+09,9E+09,9E+09,9E+09,9E+09]],speed, zone, tExtruder \WObj:=Platform;
MoveC [[116.57804559447769,338.2641976056848,4.0], [0.000772984,-0.000000011,-0.999999701,-0.000000009], [-1,-1,0,0], [ 9E+09,9E+09,9E+09,9E+09,9E+09,9E+09]],[[122.74,326.77,4.0], [0.000772984,-0.000000011,-0.999999701,-0.000000009], [-1,-1,0,0], [ 9E+09,9E+09,9E+09,9E+09,9E+09,9E+09]],speed, zone, tExtruder \WObj:=Platform;
MoveL [[127.10000000000001,324.29,4.0], [0.000772984,-0.000000011,-0.999999701,-0.000000009], [-1,-1,0,0], [ 9E+09,9E+09,9E+09,9E+09,9E+09,9E+09]],speed, zone, tExtruder \WObj:=Platform;
MoveC [[128.87836434030515,317.56177597925017,4.0], [0.000772984,-0.000000011,-0.999999701,-0.000000009], [-1,-1,0,0], [ 9E+09,9E+09,9E+09,9E+09,9E+09,9E+09]],[[124.2,312.40999999999997,4.0], [0.000772984,-0.000000011,-0.999999701,-0.000000009], [-1,-1,0,0], [ 9E+09,9E+09,9E+09,9E+09,9E+09,9E+09]],speed, zone, tExtruder \WObj:=Platform;
MoveL [[116.97,311.94,4.0], [0.000772984,-0.000000011,-0.999999701,-0.000000009], [-1,-1,0,0], [ 9E+09,9E+09,9E+09,9E+09,9E+09,9E+09]],speed, zone, tExtruder \WObj:=Platform;
MoveC [[107.3550293905607,298.8722192218045,4.0], [0.000772984,-0.000000011,-0.999999701,-0.000000009], [-1,-1,0,0], [ 9E+09,9E+09,9E+09,9E+09,9E+09,9E+09]],[[119.14,287.79,4.0], [0.000772984,-0.000000011,-0.999999701,-0.000000009], [-1,-1,0,0], [ 9E+09,9E+09,9E+09,9E+09,9E+09,9E+09]],speed, zone, tExtruder \WObj:=Platform;
MoveL [[124.29,287.59000000000003,4.0], [0.000772984,-0.000000011,-0.999999701,-0.000000009], [-1,-1,0,0], [ 9E+09,9E+09,9E+09,9E+09,9E+09,9E+09]],speed, zone, tExtruder \WObj:=Platform;
MoveC [[128.87050942723914,282.4332779236352,4.0], [0.000772984,-0.000000011,-0.999999701,-0.000000009], [-1,-1,0,0], [ 9E+09,9E+09,9E+09,9E+09,9E+09,9E+09]],[[127.12,275.76,4.0], [0.000772984,-0.000000011,-0.999999701,-0.000000009], [-1,-1,0,0], [ 9E+09,9E+09,9E+09,9E+09,9E+09,9E+09]],speed, zone, tExtruder \WObj:=Platform;
MoveL [[120.93,271.96000000000004,4.0], [0.000772984,-0.000000011,-0.999999701,-0.000000009], [-1,-1,0,0], [ 9E+09,9E+09,9E+09,9E+09,9E+09,9E+09]],speed, zone, tExtruder \WObj:=Platform;
MoveC [[118.48927877555457,255.92622631306628,4.0], [0.000772984,-0.000000011,-0.999999701,-0.000000009], [-1,-1,0,0], [ 9E+09,9E+09,9E+09,9E+09,9E+09,9E+09]],[[134.10999999999999,251.61,4.0], [0.000772984,-0.000000011,-0.999999701,-0.000000009], [-1,-1,0,0], [ 9E+09,9E+09,9E+09,9E+09,9E+09,9E+09]],speed, zone, tExtruder \WObj:=Platform;
MoveL [[138.61,253.76999999999998,4.0], [0.000772984,-0.000000011,-0.999999701,-0.000000009], [-1,-1,0,0], [ 9E+09,9E+09,9E+09,9E+09,9E+09,9E+09]],speed, zone, tExtruder \WObj:=Platform;
MoveC [[145.14482113926354,251.4017755861791,4.0], [0.000772984,-0.000000011,-0.999999701,-0.000000009], [-1,-1,0,0], [ 9E+09,9E+09,9E+09,9E+09,9E+09,9E+09]],[[146.74,244.64,4.0], [0.000772984,-0.000000011,-0.999999701,-0.000000009], [-1,-1,0,0], [ 9E+09,9E+09,9E+09,9E+09,9E+09,9E+09]],speed, zone, tExtruder \WObj:=Platform;
MoveL [[143.06,238.5,4.0], [0.000772984,-0.000000011,-0.999999701,-0.000000009], [-1,-1,0,0], [ 9E+09,9E+09,9E+09,9E+09,9E+09,9E+09]],speed, zone, tExtruder \WObj:=Platform;
MoveC [[142.42962162458153,230.7521683060564,4.0], [0.000772984,-0.000000011,-0.999999701,-0.000000009], [-1,-1,0,0], [ 9E+09,9E+09,9E+09,9E+09,9E+09,9E+09]],[[146.60999999999999,224.20000000000002,4.0], [0.000772984,-0.000000011,-0.999999701,-0.000000009], [-1,-1,0,0], [ 9E+09,9E+09,9E+09,9E+09,9E+09,9E+09]],speed, zone, tExtruder \WObj:=Platform;
MoveL [[146.82,224.08,4.0], [0.000772984,-0.000000011,-0.999999701,-0.000000009], [-1,-1,0,0], [ 9E+09,9E+09,9E+09,9E+09,9E+09,9E+09]],speed, zone, tExtruder \WObj:=Platform;
MoveL [[148.35000000000002,223.21,4.0], [0.000772984,-0.000000011,-0.999999701,-0.000000009], [-1,-1,0,0], [ 9E+09,9E+09,9E+09,9E+09,9E+09,9E+09]],speed, zone, tExtruder \WObj:=Platform;
MoveL [[149.26,228.35999999999999,4.0], [0.000772984,-0.000000011,-0.999999701,-0.000000009], [-1,-1,0,0], [ 9E+09,9E+09,9E+09,9E+09,9E+09,9E+09]],speed, zone, tExtruder \WObj:=Platform;
MoveC [[147.28178688498696,231.53922408879765,4.0], [0.000772984,-0.000000011,-0.999999701,-0.000000009], [-1,-1,0,0], [ 9E+09,9E+09,9E+09,9E+09,9E+09,9E+09]],[[147.14000000000001,235.27999999999997,4.0], [0.000772984,-0.000000011,-0.999999701,-0.000000009], [-1,-1,0,0], [ 9E+09,9E+09,9E+09,9E+09,9E+09,9E+09]],speed, zone, tExtruder \WObj:=Platform;
MoveL [[150.94,241.86,4.0], [0.000772984,-0.000000011,-0.999999701,-0.000000009], [-1,-1,0,0], [ 9E+09,9E+09,9E+09,9E+09,9E+09,9E+09]],speed, zone, tExtruder \WObj:=Platform;
MoveC [[148.64688141769872,254.58877486798113,4.0], [0.000772984,-0.000000011,-0.999999701,-0.000000009], [-1,-1,0,0], [ 9E+09,9E+09,9E+09,9E+09,9E+09,9E+09]],[[136.24,258.23,4.0], [0.000772984,-0.000000011,-0.999999701,-0.000000009], [-1,-1,0,0], [ 9E+09,9E+09,9E+09,9E+09,9E+09,9E+09]],speed, zone, tExtruder \WObj:=Platform;
MoveL [[130.91,255.65,4.0], [0.000772984,-0.000000011,-0.999999701,-0.000000009], [-1,-1,0,0], [ 9E+09,9E+09,9E+09,9E+09,9E+09,9E+09]],speed, zone, tExtruder \WObj:=Platform;
MoveC [[122.61444450332485,258.5139536862724,4.0], [0.000772984,-0.000000011,-0.999999701,-0.000000009], [-1,-1,0,0], [ 9E+09,9E+09,9E+09,9E+09,9E+09,9E+09]],[[123.13000000000001,267.27,4.0], [0.000772984,-0.000000011,-0.999999701,-0.000000009], [-1,-1,0,0], [ 9E+09,9E+09,9E+09,9E+09,9E+09,9E+09]],speed, zone, tExtruder \WObj:=Platform;
MoveL [[129.56,271.34000000000003,4.0], [0.000772984,-0.000000011,-0.999999701,-0.000000009], [-1,-1,0,0], [ 9E+09,9E+09,9E+09,9E+09,9E+09,9E+09]],speed, zone, tExtruder \WObj:=Platform;
MoveC [[133.43592944913564,283.6636113115316,4.0], [0.000772984,-0.000000011,-0.999999701,-0.000000009], [-1,-1,0,0], [ 9E+09,9E+09,9E+09,9E+09,9E+09,9E+09]],[[124.16,292.65,4.0], [0.000772984,-0.000000011,-0.999999701,-0.000000009], [-1,-1,0,0], [ 9E+09,9E+09,9E+09,9E+09,9E+09,9E+09]],speed, zone, tExtruder \WObj:=Platform;
MoveL [[118.21,292.85,4.0], [0.000772984,-0.000000011,-0.999999701,-0.000000009], [-1,-1,0,0], [ 9E+09,9E+09,9E+09,9E+09,9E+09,9E+09]],speed, zone, tExtruder \WObj:=Platform;
MoveC [[112.17621482823267,299.22304161762537,4.0], [0.000772984,-0.000000011,-0.999999701,-0.000000009], [-1,-1,0,0], [ 9E+09,9E+09,9E+09,9E+09,9E+09,9E+09]],[[116.72,306.75,4.0], [0.000772984,-0.000000011,-0.999999701,-0.000000009], [-1,-1,0,0], [ 9E+09,9E+09,9E+09,9E+09,9E+09,9E+09]],speed, zone, tExtruder \WObj:=Platform;
MoveL [[124.3,307.37,4.0], [0.000772984,-0.000000011,-0.999999701,-0.000000009], [-1,-1,0,0], [ 9E+09,9E+09,9E+09,9E+09,9E+09,9E+09]],speed, zone, tExtruder \WObj:=Platform;
MoveC [[133.47153964273022,316.5140453842597,4.0], [0.000772984,-0.000000011,-0.999999701,-0.000000009], [-1,-1,0,0], [ 9E+09,9E+09,9E+09,9E+09,9E+09,9E+09]],[[129.38,328.8,4.0], [0.000772984,-0.000000011,-0.999999701,-0.000000009], [-1,-1,0,0], [ 9E+09,9E+09,9E+09,9E+09,9E+09,9E+09]],speed, zone, tExtruder \WObj:=Platform;
MoveL [[122.99,332.84,4.0], [0.000772984,-0.000000011,-0.999999701,-0.000000009], [-1,-1,0,0], [ 9E+09,9E+09,9E+09,9E+09,9E+09,9E+09]],speed, zone, tExtruder \WObj:=Platform;
MoveC [[122.63574861822887,341.5677778976266,4.0], [0.000772984,-0.000000011,-0.999999701,-0.000000009], [-1,-1,0,0], [ 9E+09,9E+09,9E+09,9E+09,9E+09,9E+09]],[[130.93,344.34,4.0], [0.000772984,-0.000000011,-0.999999701,-0.000000009], [-1,-1,0,0], [ 9E+09,9E+09,9E+09,9E+09,9E+09,9E+09]],speed, zone, tExtruder \WObj:=Platform;
MoveL [[136.32999999999998,341.74,4.0], [0.000772984,-0.000000011,-0.999999701,-0.000000009], [-1,-1,0,0], [ 9E+09,9E+09,9E+09,9E+09,9E+09,9E+09]],speed, zone, tExtruder \WObj:=Platform;
MoveC [[148.7271778146368,345.5039772323244,4.0], [0.000772984,-0.000000011,-0.999999701,-0.000000009], [-1,-1,0,0], [ 9E+09,9E+09,9E+09,9E+09,9E+09,9E+09]],[[150.88,358.28000000000003,4.0], [0.000772984,-0.000000011,-0.999999701,-0.000000009], [-1,-1,0,0], [ 9E+09,9E+09,9E+09,9E+09,9E+09,9E+09]],speed, zone, tExtruder \WObj:=Platform;
MoveL [[147.67,363.26,4.0], [0.000772984,-0.000000011,-0.999999701,-0.000000009], [-1,-1,0,0], [ 9E+09,9E+09,9E+09,9E+09,9E+09,9E+09]],speed, zone, tExtruder \WObj:=Platform;
MoveC [[149.50534678288085,371.8575190284992,4.0], [0.000772984,-0.000000011,-0.999999701,-0.000000009], [-1,-1,0,0], [ 9E+09,9E+09,9E+09,9E+09,9E+09,9E+09]],[[158.28,372.40000000000003,4.0], [0.000772984,-0.000000011,-0.999999701,-0.000000009], [-1,-1,0,0], [ 9E+09,9E+09,9E+09,9E+09,9E+09,9E+09]],speed, zone, tExtruder \WObj:=Platform;
MoveL [[163.07,366.52,4.0], [0.000772984,-0.000000011,-0.999999701,-0.000000009], [-1,-1,0,0], [ 9E+09,9E+09,9E+09,9E+09,9E+09,9E+09]],speed, zone, tExtruder \WObj:=Platform;
MoveC [[175.78006775624084,364.12474810437027,4.0], [0.000772984,-0.000000011,-0.999999701,-0.000000009], [-1,-1,0,0], [ 9E+09,9E+09,9E+09,9E+09,9E+09,9E+09]],[[183.59000000000003,374.44000000000005,4.0], [0.000772984,-0.000000011,-0.999999701,-0.000000009], [-1,-1,0,0], [ 9E+09,9E+09,9E+09,9E+09,9E+09,9E+09]],speed, zone, tExtruder \WObj:=Platform;
MoveL [[183.07,380.34999999999997,4.0], [0.000772984,-0.000000011,-0.999999701,-0.000000009], [-1,-1,0,0], [ 9E+09,9E+09,9E+09,9E+09,9E+09,9E+09]],speed, zone, tExtruder \WObj:=Platform;
MoveC [[188.6963604269226,387.10309653099245,4.0], [0.000772984,-0.000000011,-0.999999701,-0.000000009], [-1,-1,0,0], [ 9E+09,9E+09,9E+09,9E+09,9E+09,9E+09]],[[196.70000000000002,383.5,4.0], [0.000772984,-0.000000011,-0.999999701,-0.000000009], [-1,-1,0,0], [ 9E+09,9E+09,9E+09,9E+09,9E+09,9E+09]],speed, zone, tExtruder \WObj:=Platform;
MoveL [[198.22,376.04999999999995,4.0], [0.000772984,-0.000000011,-0.999999701,-0.000000009], [-1,-1,0,0], [ 9E+09,9E+09,9E+09,9E+09,9E+09,9E+09]],speed, zone, tExtruder \WObj:=Platform;
MoveC [[208.367246352105,368.06833601525676,4.0], [0.000772984,-0.000000011,-0.999999701,-0.000000009], [-1,-1,0,0], [ 9E+09,9E+09,9E+09,9E+09,9E+09,9E+09]],[[220.04999999999998,373.54999999999995,4.0], [0.000772984,-0.000000011,-0.999999701,-0.000000009], [-1,-1,0,0], [ 9E+09,9E+09,9E+09,9E+09,9E+09,9E+09]],speed, zone, tExtruder \WObj:=Platform;
MoveL [[222.35,379.03,4.0], [0.000772984,-0.000000011,-0.999999701,-0.000000009], [-1,-1,0,0], [ 9E+09,9E+09,9E+09,9E+09,9E+09,9E+09]],speed, zone, tExtruder \WObj:=Platform;
MoveC [[230.46727391217962,382.3959089997933,4.0], [0.000772984,-0.000000011,-0.999999701,-0.000000009], [-1,-1,0,0], [ 9E+09,9E+09,9E+09,9E+09,9E+09,9E+09]],[[235.88,375.49,4.0], [0.000772984,-0.000000011,-0.999999701,-0.000000009], [-1,-1,0,0], [ 9E+09,9E+09,9E+09,9E+09,9E+09,9E+09]],speed, zone, tExtruder \WObj:=Platform;
MoveL [[233.76999999999998,368.21,4.0], [0.000772984,-0.000000011,-0.999999701,-0.000000009], [-1,-1,0,0], [ 9E+09,9E+09,9E+09,9E+09,9E+09,9E+09]],speed, zone, tExtruder \WObj:=Platform;
MoveC [[239.03376897896837,356.3940802755826,4.0], [0.000772984,-0.000000011,-0.999999701,-0.000000009], [-1,-1,0,0], [ 9E+09,9E+09,9E+09,9E+09,9E+09,9E+09]],[[251.95,355.81000000000006,4.0], [0.000772984,-0.000000011,-0.999999701,-0.000000009], [-1,-1,0,0], [ 9E+09,9E+09,9E+09,9E+09,9E+09,9E+09]],speed, zone, tExtruder \WObj:=Platform;
MoveL [[256.51,359.6,4.0], [0.000772984,-0.000000011,-0.999999701,-0.000000009], [-1,-1,0,0], [ 9E+09,9E+09,9E+09,9E+09,9E+09,9E+09]],speed, zone, tExtruder \WObj:=Platform;
MoveC [[265.2446007876893,358.78865142144366,4.0], [0.000772984,-0.000000011,-0.999999701,-0.000000009], [-1,-1,0,0], [ 9E+09,9E+09,9E+09,9E+09,9E+09,9E+09]],[[266.86,350.17,4.0], [0.000772984,-0.000000011,-0.999999701,-0.000000009], [-1,-1,0,0], [ 9E+09,9E+09,9E+09,9E+09,9E+09,9E+09]],speed, zone, tExtruder \WObj:=Platform;
MoveL [[261.61,344.71,4.0], [0.000772984,-0.000000011,-0.999999701,-0.000000009], [-1,-1,0,0], [ 9E+09,9E+09,9E+09,9E+09,9E+09,9E+09]],speed, zone, tExtruder \WObj:=Platform;
MoveC [[260.7674865312994,331.8128558703919,4.0], [0.000772984,-0.000000011,-0.999999701,-0.000000009], [-1,-1,0,0], [ 9E+09,9E+09,9E+09,9E+09,9E+09,9E+09]],[[271.92,325.29,4.0], [0.000772984,-0.000000011,-0.999999701,-0.000000009], [-1,-1,0,0], [ 9E+09,9E+09,9E+09,9E+09,9E+09,9E+09]],speed, zone, tExtruder \WObj:=Platform;
MoveL [[277.75,326.53,4.0], [0.000772984,-0.000000011,-0.999999701,-0.000000009], [-1,-1,0,0], [ 9E+09,9E+09,9E+09,9E+09,9E+09,9E+09]],speed, zone, tExtruder \WObj:=Platform;
MoveC [[285.1357952817097,321.75727730917544,4.0], [0.000772984,-0.000000011,-0.999999701,-0.000000009], [-1,-1,0,0], [ 9E+09,9E+09,9E+09,9E+09,9E+09,9E+09]],[[282.52,313.36,4.0], [0.000772984,-0.000000011,-0.999999701,-0.000000009], [-1,-1,0,0], [ 9E+09,9E+09,9E+09,9E+09,9E+09,9E+09]],speed, zone, tExtruder \WObj:=Platform;
MoveL [[275.32,310.96,4.0], [0.000772984,-0.000000011,-0.999999701,-0.000000009], [-1,-1,0,0], [ 9E+09,9E+09,9E+09,9E+09,9E+09,9E+09]],speed, zone, tExtruder \WObj:=Platform;
MoveC [[268.59054523814956,299.9329056154949,4.0], [0.000772984,-0.000000011,-0.999999701,-0.000000009], [-1,-1,0,0], [ 9E+09,9E+09,9E+09,9E+09,9E+09,9E+09]],[[275.45000000000005,288.98,4.0], [0.000772984,-0.000000011,-0.999999701,-0.000000009], [-1,-1,0,0], [ 9E+09,9E+09,9E+09,9E+09,9E+09,9E+09]],speed, zone, tExtruder \WObj:=Platform;
MoveC [[280.1348257815515,287.8839462854879,4.0], [0.000772984,-0.000000011,-0.999999701,-0.000000009], [-1,-1,0,0], [ 9E+09,9E+09,9E+09,9E+09,9E+09,9E+09]],[[284.08000000000004,285.13,4.0], [0.000772984,-0.000000011,-0.999999701,-0.000000009], [-1,-1,0,0], [ 9E+09,9E+09,9E+09,9E+09,9E+09,9E+09]],speed, zone, tExtruder \WObj:=Platform;
MoveC [[285.01266149679395,277.9377857847296,4.0], [0.000772984,-0.000000011,-0.999999701,-0.000000009], [-1,-1,0,0], [ 9E+09,9E+09,9E+09,9E+09,9E+09,9E+09]],[[279.27,273.5,4.0], [0.000772984,-0.000000011,-0.999999701,-0.000000009], [-1,-1,0,0], [ 9E+09,9E+09,9E+09,9E+09,9E+09,9E+09]],speed, zone, tExtruder \WObj:=Platform;
MoveL [[271.8,274.72,4.0], [0.000772984,-0.000000011,-0.999999701,-0.000000009], [-1,-1,0,0], [ 9E+09,9E+09,9E+09,9E+09,9E+09,9E+09]],speed, zone, tExtruder \WObj:=Platform;
MoveC [[260.7232992181961,268.0619267519394,4.0], [0.000772984,-0.000000011,-0.999999701,-0.000000009], [-1,-1,0,0], [ 9E+09,9E+09,9E+09,9E+09,9E+09,9E+09]],[[261.69,255.18,4.0], [0.000772984,-0.000000011,-0.999999701,-0.000000009], [-1,-1,0,0], [ 9E+09,9E+09,9E+09,9E+09,9E+09,9E+09]],speed, zone, tExtruder \WObj:=Platform;
MoveL [[266.0,251.1,4.0], [0.000772984,-0.000000011,-0.999999701,-0.000000009], [-1,-1,0,0], [ 9E+09,9E+09,9E+09,9E+09,9E+09,9E+09]],speed, zone, tExtruder \WObj:=Platform;
MoveC [[266.2519570498187,242.33374745074426,4.0], [0.000772984,-0.000000011,-0.999999701,-0.000000009], [-1,-1,0,0], [ 9E+09,9E+09,9E+09,9E+09,9E+09,9E+09]],[[257.89,239.69,4.0], [0.000772984,-0.000000011,-0.999999701,-0.000000009], [-1,-1,0,0], [ 9E+09,9E+09,9E+09,9E+09,9E+09,9E+09]],speed, zone, tExtruder \WObj:=Platform;
MoveL [[251.82999999999998,244.26,4.0], [0.000772984,-0.000000011,-0.999999701,-0.000000009], [-1,-1,0,0], [ 9E+09,9E+09,9E+09,9E+09,9E+09,9E+09]],speed, zone, tExtruder \WObj:=Platform;
MoveC [[238.90057715154597,243.51076341982832,4.0], [0.000772984,-0.000000011,-0.999999701,-0.000000009], [-1,-1,0,0], [ 9E+09,9E+09,9E+09,9E+09,9E+09,9E+09]],[[233.79999999999998,231.62,4.0], [0.000772984,-0.000000011,-0.999999701,-0.000000009], [-1,-1,0,0], [ 9E+09,9E+09,9E+09,9E+09,9E+09,9E+09]],speed, zone, tExtruder \WObj:=Platform;
MoveL [[235.72,226.04,4.0], [0.000772984,-0.000000011,-0.999999701,-0.000000009], [-1,-1,0,0], [ 9E+09,9E+09,9E+09,9E+09,9E+09,9E+09]],speed, zone, tExtruder \WObj:=Platform;
MoveC [[231.8858680935276,218.13998815509825,4.0], [0.000772984,-0.000000011,-0.999999701,-0.000000009], [-1,-1,0,0], [ 9E+09,9E+09,9E+09,9E+09,9E+09,9E+09]],[[223.23000000000002,219.72000000000003,4.0], [0.000772984,-0.000000011,-0.999999701,-0.000000009], [-1,-1,0,0], [ 9E+09,9E+09,9E+09,9E+09,9E+09,9E+09]],speed, zone, tExtruder \WObj:=Platform;
MoveL [[220.01000000000002,226.55,4.0], [0.000772984,-0.000000011,-0.999999701,-0.000000009], [-1,-1,0,0], [ 9E+09,9E+09,9E+09,9E+09,9E+09,9E+09]],speed, zone, tExtruder \WObj:=Platform;
MoveC [[208.2315270583734,231.92702961991364,4.0], [0.000772984,-0.000000011,-0.999999701,-0.000000009], [-1,-1,0,0], [ 9E+09,9E+09,9E+09,9E+09,9E+09,9E+09]],[[198.17000000000002,223.78,4.0], [0.000772984,-0.000000011,-0.999999701,-0.000000009], [-1,-1,0,0], [ 9E+09,9E+09,9E+09,9E+09,9E+09,9E+09]],speed, zone, tExtruder \WObj:=Platform;
MoveL [[197.27,217.93,4.0], [0.000772984,-0.000000011,-0.999999701,-0.000000009], [-1,-1,0,0], [ 9E+09,9E+09,9E+09,9E+09,9E+09,9E+09]],speed, zone, tExtruder \WObj:=Platform;
MoveC [[190.20600774790648,212.69379813838216,4.0], [0.000772984,-0.000000011,-0.999999701,-0.000000009], [-1,-1,0,0], [ 9E+09,9E+09,9E+09,9E+09,9E+09,9E+09]],[[183.28,218.11,4.0], [0.000772984,-0.000000011,-0.999999701,-0.000000009], [-1,-1,0,0], [ 9E+09,9E+09,9E+09,9E+09,9E+09,9E+09]],speed, zone, tExtruder \WObj:=Platform;
MoveL [[183.58,225.71,4.0], [0.000772984,-0.000000011,-0.999999701,-0.000000009], [-1,-1,0,0], [ 9E+09,9E+09,9E+09,9E+09,9E+09,9E+09]],speed, zone, tExtruder \WObj:=Platform;
MoveC [[175.6401589204766,235.90980209878103,4.0], [0.000772984,-0.000000011,-0.999999701,-0.000000009], [-1,-1,0,0], [ 9E+09,9E+09,9E+09,9E+09,9E+09,9E+09]],[[162.95999999999998,233.37,4.0], [0.000772984,-0.000000011,-0.999999701,-0.000000009], [-1,-1,0,0], [ 9E+09,9E+09,9E+09,9E+09,9E+09,9E+09]],speed, zone, tExtruder \WObj:=Platform;
MoveC [[160.281039700357,229.39278511885755,4.0], [0.000772984,-0.000000011,-0.999999701,-0.000000009], [-1,-1,0,0], [ 9E+09,9E+09,9E+09,9E+09,9E+09,9E+09]],[[156.32,226.69,4.0], [0.000772984,-0.000000011,-0.999999701,-0.000000009], [-1,-1,0,0], [ 9E+09,9E+09,9E+09,9E+09,9E+09,9E+09]],speed, zone, tExtruder \WObj:=Platform;
MoveC [[152.56581232749534,226.58109259266138,4.0], [0.000772984,-0.000000011,-0.999999701,-0.000000009], [-1,-1,0,0], [ 9E+09,9E+09,9E+09,9E+09,9E+09,9E+09]],[[149.26,228.35999999999999,4.0], [0.000772984,-0.000000011,-0.999999701,-0.000000009], [-1,-1,0,0], [ 9E+09,9E+09,9E+09,9E+09,9E+09,9E+09]],speed, zone, tExtruder \WObj:=Platform;
MoveL [[148.21,230.06,4.0], [0.000772984,-0.000000011,-0.999999701,-0.000000009], [-1,-1,0,0], [ 9E+09,9E+09,9E+09,9E+09,9E+09,9E+09]],speed, zone, tExtruder \WObj:=Platform;
MoveL [[148.47,229.36,4.0], [0.000772984,-0.000000011,-0.999999701,-0.000000009], [-1,-1,0,0], [ 9E+09,9E+09,9E+09,9E+09,9E+09,9E+09]],speed, zone, tExtruder \WObj:=Platform;
MoveL [[147.75,228.90999999999997,4.0], [0.000772984,-0.000000011,-0.999999701,-0.000000009], [-1,-1,0,0], [ 9E+09,9E+09,9E+09,9E+09,9E+09,9E+09]],speed, zone, tExtruder \WObj:=Platform;
MoveL [[150.97,242.14,4.0], [0.000772984,-0.000000011,-0.999999701,-0.000000009], [-1,-1,0,0], [ 9E+09,9E+09,9E+09,9E+09,9E+09,9E+09]],speed, zone, tExtruder \WObj:=Platform;
MoveL [[158.24,253.19,4.0], [0.000772984,-0.000000011,-0.999999701,-0.000000009], [-1,-1,0,0], [ 9E+09,9E+09,9E+09,9E+09,9E+09,9E+09]],speed, zone, tExtruder \WObj:=Platform;
MoveL [[163.01999999999998,248.85999999999999,4.0], [0.000772984,-0.000000011,-0.999999701,-0.000000009], [-1,-1,0,0], [ 9E+09,9E+09,9E+09,9E+09,9E+09,9E+09]],speed, zone, tExtruder \WObj:=Platform;
MoveC [[244.5833876579149,344.70031925857336,4.0], [0.000772984,-0.000000011,-0.999999701,-0.000000009], [-1,-1,0,0], [ 9E+09,9E+09,9E+09,9E+09,9E+09,9E+09]],[[149.03,262.8,4.0], [0.000772984,-0.000000011,-0.999999701,-0.000000009], [-1,-1,0,0], [ 9E+09,9E+09,9E+09,9E+09,9E+09,9E+09]],speed, zone, tExtruder \WObj:=Platform;
MoveL [[154.37,256.57,4.0], [0.000772984,-0.000000011,-0.999999701,-0.000000009], [-1,-1,0,0], [ 9E+09,9E+09,9E+09,9E+09,9E+09,9E+09]],speed, zone, tExtruder \WObj:=Platform;
MoveC [[158.6471475228549,252.6613143713368,4.0], [0.000772984,-0.000000011,-0.999999701,-0.000000009], [-1,-1,0,0], [ 9E+09,9E+09,9E+09,9E+09,9E+09,9E+09]],[[163.01999999999998,248.85999999999999,4.0], [0.000772984,-0.000000011,-0.999999701,-0.000000009], [-1,-1,0,0], [ 9E+09,9E+09,9E+09,9E+09,9E+09,9E+09]],speed, zone, tExtruder \WObj:=Platform;
MoveL [[164.72000000000003,247.82,4.0], [0.000772984,-0.000000011,-0.999999701,-0.000000009], [-1,-1,0,0], [ 9E+09,9E+09,9E+09,9E+09,9E+09,9E+09]],speed, zone, tExtruder \WObj:=Platform;
MoveL [[165.48,253.24,4.0], [0.000772984,-0.000000011,-0.999999701,-0.000000009], [-1,-1,0,0], [ 9E+09,9E+09,9E+09,9E+09,9E+09,9E+09]],speed, zone, tExtruder \WObj:=Platform;
MoveC [[230.47448196665115,349.51801417810407,4.0], [0.000772984,-0.000000011,-0.999999701,-0.000000009], [-1,-1,0,0], [ 9E+09,9E+09,9E+09,9E+09,9E+09,9E+09]],[[173.87,248.07999999999998,4.0], [0.000772984,-0.000000011,-0.999999701,-0.000000009], [-1,-1,0,0], [ 9E+09,9E+09,9E+09,9E+09,9E+09,9E+09]],speed, zone, tExtruder \WObj:=Platform;
MoveL [[165.48,253.24,4.0], [0.000772984,-0.000000011,-0.999999701,-0.000000009], [-1,-1,0,0], [ 9E+09,9E+09,9E+09,9E+09,9E+09,9E+09]],speed, zone, tExtruder \WObj:=Platform;
